!!!!SEGMENT: pl-kk--kk-i-492_anonim--miserere.krn
!!!cenid: 17xx:1834
!!!COM: Anonim
!!!COM-rismID: pe30004985
!!!CDT:
!!!CNT:
!!!OTL: Miserere
!!!PDT:
!!!AGN:
!!!SMS-siglum: PL-Kk
!!!SMS-shelfmark: Kk.I.492
!!!SMS-shelfwork: W
!!!SMS-variant:
!!!SMS-altvar:
!!!NIFC-rismSourceID: 1001136680
!!!NIFC-rismChildID: 1001136680
!!!NIFC-islandoraID: pl-kk:14551
!!!URL-pdf-islandora: https://repozytorium.nifc.pl/islandora/object/pl-kk%3A14551/datastream/PDF/view
!!!URL-scan: https://polish.musicsources.pl/pl/lokalizacje/galeria/rekopisy/6100 @EN{Scan on Polish Music Sources Website} @PL{Skany w portalu Dziedzictwo Muzyki Polskiej w otwartym dostępie}
!!!ONB-nifc:
!!!AIN: 1 alto 1 empty 2 tenor
!!!key:
**kern	**text	**dynam	**kern	**text	**dynam	**kern	**text	**dynam	**kern	**text	**dynam
*part4	*part4	*part4	*part3	*part3	*part3	*part2	*part2	*part2	*part1	*part1	*part1
*staff4	*staff4	*	*staff3	*staff3	*	*staff2	*staff2	*	*staff1	*staff1	*
*Iempty	*	*	*Itenor	*	*	*Itenor	*	*	*Ialto	*	*
*I"Baſso.	*	*	*I"Tenore 2do.	*	*	*I"Tenore 1mo	*	*	*I"Alto.	*	*
*I'B	*	*	*I'T II	*	*	*I'T I	*	*	*I'A	*	*
*group1	*	*	*group1	*	*	*group1	*	*	*group1	*	*
*clefF4	*	*	*clefC4	*	*	*clefC4	*	*	*clefC3	*	*
*k[]	*	*	*k[]	*	*	*k[]	*	*	*k[]	*	*
*a:	*	*	*a:	*	*	*a:	*	*	*a:	*	*
*M2/2	*	*	*M2/2	*	*	*M2/2	*	*	*M2/2	*	*
*met(c|)	*	*	*met(c|)	*	*	*met(c)	*	*	*met(c|)	*	*
=1	=1	=1	=1	=1	=1	=1	=1	=1	=1	=1	=1
*2\right	*	*	*2\right	*	*	*2\right	*	*	*2\right	*	*
!LO:TX:t=P:global:problem=oznaczenia dynamiki na pięciolinii	!	!	!	!	!	!LO:TX:t=P:problem=metrum C	!	!	!	!	!
!	!	!	!LO:TX:a:t=adagio	!	!	!LO:TX:a:t=Adagio	!	!	!LO:TX:t=P:global:problem=oznaczenia dynamiki na pięciolinii	!	!
!	!	!	!LO:TX:t=P:global:problem=oznaczenia dynamiki na pięciolinii	!	!	!LO:TX:t=P:global:problem=oznaczenia dynamiki na pięciolinii	!	!	!	!	!
2r	.	.	4c\	Mi-	.	4e\	Mi-	.	2r	.	.
.	.	.	4B\	-se-	.	4d\	-se-	.	.	.	.
4A\	Mi-	.	4A\	-re-	.	4c\	-re-	.	4e\	Mi-	.
4G#X\	-se-	.	4B\	-re	.	4B\	-re	.	4e\	-se-	.
=2	=2	=2	=2	=2	=2	=2	=2	=2	=2	=2	=2
4A\	-re-	.	4c\	me-	.	4A\	me-	.	4e\	-re-	.
4E\	-re	.	4B\	-i	.	4G#X\	-i	.	4e\	-re	.
4A\	me-	.	4c\	De-	.	4A\	De-	.	4e\	me-	.
4G#X\	-i	.	4d\	.	.	4B\	.	.	4e\	-i	.
=3	=3	=3	=3	=3	=3	=3	=3	=3	=3	=3	=3
4A\	De-	.	2c\	.	.	4A\	.	.	2e\	De-	.
2c\	.	.	.	.	.	4e\	.	.	.	.	.
.	.	.	2d\	.	.	4f\	.	.	4a\	.	.
4B\	.	.	.	.	.	8e\L	.	.	8g\L	.	.
.	.	.	.	.	.	8d\J	.	.	8f\J	.	.
=4	=4	=4	=4	=4	=4	=4	=4	=4	=4	=4	=4
4B\	.	.	2c\	.	.	4e\	.	.	4g\	.	.
2A\	.	.	.	.	.	8d\L	.	.	8f\L	.	.
.	.	.	.	.	.	8c\J	.	.	8e\J	.	.
.	.	.	2B\	.	.	2d\	.	.	4f\	.	.
4G#X\	.	.	.	.	.	.	.	.	4e\	.	.
=5	=5	=5	=5	=5	=5	=5	=5	=5	=5	=5	=5
2A\	.	.	4c\	.	.	1c	.	.	2e\	.	.
.	.	.	4A\	.	.	.	.	.	.	.	.
2D#X\	.	.	2A\	.	.	.	.	.	2f#X\	.	.
=6	=6	=6	=6	=6	=6	=6	=6	=6	=6	=6	=6
2E;\	-us	.	4A/	.	.	4c\	.	.	2e;\	-us	.
.	.	.	4G#X;/	-us	.	4B;\	-us	.	.	.	.
!	!	!	!	!	!	!	!	!LO:DY:a:t=forte	!	!	!LO:DY:a:t=for&colon;
2r	.	.	2r	.	.	4c\	se-	f	4e\	se-	f
.	.	.	.	.	.	8c\	-cu(n)-	.	8e\	-cu(n)-	.
.	.	.	.	.	.	8c\	-du(m)	.	8e\	-du(m)	.
=7	=7	=7	=7	=7	=7	=7	=7	=7	=7	=7	=7
!	!	!LO:DY:a:t=for	!	!	!LO:DY:a:t=for.	!	!	!	!	!	!
4A\	se-	f	4c\	se-	f	4c\	ma-	.	4e\	ma-	.
8A\	-cu(n)-	.	8c\	-cu(n)-	.	4e\	.	.	2a\	.	.
8A\	-du(m)	.	8c\	-du(m)	.	.	.	.	.	.	.
4Dn\	ma-	.	4c\	.	.	2d\	.	.	.	.	.
4Gn\	.	.	4B\	ma-	.	.	.	.	[4g\	.	.
=8	=8	=8	=8	=8	=8	=8	=8	=8	=8	=8	=8
4C/	.	.	4B\	.	.	2c\	.	.	4g\]	.	.
2F\	.	.	4A\	.	.	.	.	.	4a\	.	.
.	.	.	4d\	.	.	4B\	.	.	2g\	.	.
*custos:D	*	*	*	*	*	*	*	*	*	*	*
4E\	.	.	4e\	.	.	[4c\	.	.	.	.	.
!LO:LB:g=original	!	!	!	!	!	!	!	!	!	!	!
=9	=9	=9	=9	=9	=9	=9	=9	=9	=9	=9	=9
4D\	.	.	2f\	.	.	4c\]	.	.	4a\	.	.
4G\	.	.	.	.	.	4B\	.	.	4g\	.	.
*	*	*	*	*	*	*custos:e	*	*	*custos:g	*	*
2C;/	-gna(m)	.	2e;\	-gna(m)	.	2c;\	-gnam	.	2g;\	-gnam	.
!	!	!	!	!	!	!LO:LB:g=original	!	!	!LO:LB:g=original	!	!
=10	=10	=10	=10	=10	=10	=10	=10	=10	=10	=10	=10
!	!	!	!	!	!LO:DY:b:t=pia	!	!	!LO:DY:a:t=piano	!	!	!
2r	.	.	4c\	mi-	p	4e\	mi-	p	2r	.	.
.	.	.	8B\	-se-	.	8d\	-se-	.	.	.	.
.	.	.	8A\	-ri-	.	8c\	-ri-	.	.	.	.
!	!	!LO:DY:b:t=pian.	!	!	!	!	!	!	!LO:SIC:s=4g#:v	!	!
4E\	mi-	p	4G#X\	-cor-	.	4B\	-cor-	.	4g\	mi-	.
*	*	*	*custos:A	*	*	*	*	*	*	*	*
!	!	!	!	!	!	!	!	!	!LO:SIC:s=8g#:v	!	!
8E\	-se-	.	4B\	.	.	4e\	.	.	8g\	-se-	.
!	!	!	!	!	!	!	!	!	!LO:SIC:s=8g#:v	!	!
8E\	-ri-	.	.	.	.	.	.	.	8g\	-ri-	.
!	!	!	!LO:LB:g=original	!	!	!	!	!	!	!	!
=11	=11	=11	=11	=11	=11	=11	=11	=11	=11	=11	=11
4F\	-cor-	.	4A\	.	.	1d	.	.	2a\	-cor-	.
4F#X\	.	.	4c\	.	.	.	.	.	.	.	.
4G\	.	.	4B\	.	.	.	.	.	2b\	.	.
4G#X\	.	.	[4e\	.	.	.	.	.	.	.	.
=12	=12	=12	=12	=12	=12	=12	=12	=12	=12	=12	=12
4A\	.	.	4e\]	.	.	4c\	.	.	4a\	.	.
8D#X\	-di-	.	8f#X\	-di-	.	8c\	-di-	.	8a\	-di-	.
8D#\	-am	.	8f#\	-am	.	8c\	-a(m)	.	8a\	-a(m)	.
!	!	!	!	!	!	!	!	!	!LO:N:vis=8	!	!
2E\	tu-	.	2e\	tu-	.	2B\	tu-	.	4a\	.	.
.	.	.	.	.	.	.	.	.	8g#X\L	tu-	.
!	!	!	!	!	!	!	!	!	!LO:SIC:s=8f#:v	!	!
.	.	.	.	.	.	.	.	.	8f\J	.	.
=13	=13	=13	=13	=13	=13	=13	=13	=13	=13	=13	=13
!LO:TX:a:t=Et Secundum \ntacet	!	!	!LO:TX:a:t=Et Secu(n)du(m) \ntacet	!	!	!LO:TX:a:t=Et \nSecu(n) tacet \ndum	!	!	!LO:TX:a:t=Et Secundu(m) \ntacet	!	!
1E;	-am.	.	1e;	-am.	.	1B;	-am.	.	1g#X	-am.	.
!LO:LB:g=original	!	!	!	!	!	!	!	!	!LO:LB:g=original	!	!
=14||	=14||	=14||	=14||	=14||	=14||	=14||	=14||	=14||	=14||	=14||	=14||
*M2/2	*	*	*M2/2	*	*	*M2/2	*	*	*M2/2	*	*
*met(c|)	*	*	*met(c|)	*	*	*met(c|)	*	*	*met(c|)	*	*
4A\	Am-	.	2A\	Am-	.	2c\	Am-	.	2e\	Am-	.
4B\	.	.	.	.	.	.	.	.	.	.	.
4c\	.	.	4A\	-pli-	.	4c\	-pli-	.	4e\	-pli-	.
8A\	-pli-	.	4A\	-(us)	.	4c\	-(us)	.	4e\	-us	.
8A\	-us	.	.	.	.	.	.	.	.	.	.
=15	=15	=15	=15	=15	=15	=15	=15	=15	=15	=15	=15
(4G#X\	la-	.	2B\	la-	.	2d\	la-	.	2e\	la-	.
4F#X\	.	.	.	.	.	.	.	.	.	.	.
4G#\)	.	.	2B\	-va	.	2d\	-va	.	2e\	-va	.
4E\	-va	.	.	.	.	.	.	.	.	.	.
=16	=16	=16	=16	=16	=16	=16	=16	=16	=16	=16	=16
2AA/	me	.	2A\	me	.	2c\	me	.	2e\	me	.
2r	.	.	4c\	ab	.	4e\	ab	.	2r	.	.
.	.	.	4c\	i-	.	4e\	i-	.	.	.	.
=17	=17	=17	=17	=17	=17	=17	=17	=17	=17	=17	=17
4E\	ab	.	4B\	-ni-	.	4d\	-ni-	.	4g#X\	ab	.
4E\	i-	.	4A\	-qui-	.	4c\	-qui-	.	4a\	i-	.
!	!	!	!	!	!	!	!LO:MO:mod=ta	!	!	!	!
4E\	-ni-	.	4G#X\	-ta-	.	4B\	-te-	.	4b\	-ni-	.
4E\	-qui-	.	4A\	.	.	4c\	.	.	4a\	-qui-	.
=18	=18	=18	=18	=18	=18	=18	=18	=18	=18	=18	=18
4E\	-ta-	.	4B\	.	.	4d\	.	.	4g#X\	-ta-	.
4E\	-te	.	4A\	.	.	4c\	.	.	(4a\	.	.
[2E\	me	.	4G#X\	.	.	4B\	.	.	4b\)	.	.
*	*	*	*	*	*	*custos:B	*	*	*	*	*
.	.	.	4A\	-te	.	4c\	-te	.	4e\	-te	.
!	!	!	!	!	!	!LO:LB:g=original	!	!	!	!	!
=19	=19	=19	=19	=19	=19	=19	=19	=19	=19	=19	=19
2E\]	.	.	4A\	me-	.	2B\	me-	.	2e\	me-	.
.	.	.	4G#X\	.	.	.	.	.	.	.	.
*	*	*	*custos:c	*	*	*	*	*	*	*	*
2AA;/	a	.	2A;</	-a	.	2c;\	-a	.	2e;\	-a	.
!	!	!	!LO:LB:g=original	!	!	!	!	!	!	!	!
=20	=20	=20	=20	=20	=20	=20	=20	=20	=20	=20	=20
2A\	et	.	4r	.	.	4r	.	.	2e\	et	.
.	.	.	4c\	et	.	4e\	et	.	.	.	.
4A\	a	.	2B\	a	.	2d\	a	.	4f\	a	.
4Gn\	pec-	.	.	.	.	.	.	.	[4e\	pec-	.
=21	=21	=21	=21	=21	=21	=21	=21	=21	=21	=21	=21
4G\	-ca-	.	2A\	pec-	.	2c\	pec-	.	4e\]	.	.
2F\	-to	.	.	.	.	.	.	.	2d\	-ca-	.
.	.	.	4Gn/	-ca-	.	4B\	-ca-	.	.	.	.
4E\	.	.	4G/	-to	.	4c\	-to	.	4e\	-to	.
=22	=22	=22	=22	=22	=22	=22	=22	=22	=22	=22	=22
2D\	me-	.	(4A\	me-	.	(4c\	me-	.	2f\	me-	.
.	.	.	4G/)	.	.	4B\)	.	.	.	.	.
2C;/	-o	.	2G;/	-o	.	2c;\	-o	.	2e;\	-o	.
=23	=23	=23	=23	=23	=23	=23	=23	=23	=23	=23	=23
!	!	!LO:DY:b:t=pia	!	!	!LO:DY:b:t=pia&colon;	!	!	!LO:DY:a:t=piano	!	!	!LO:DY:a:t=pian
2F#X\	a-	p	4r	.	p	4r	.	p	2a\	a	p
.	.	.	4c\	a	.	(4e-X\	a	.	.	.	.
*custos:G	*	*	*	*	*	*	*	*	*custos:g	*	*
2F#\	-pec-	.	4d\	.	.	4d\)	.	.	2a\	pec-	.
.	.	.	4e-X\	pec-	.	4c\	pec-	.	.	.	.
!LO:LB:g=original	!	!	!	!	!	!	!	!	!LO:LB:g=original	!	!
=24	=24	=24	=24	=24	=24	=24	=24	=24	=24	=24	=24
2G\	-ca-	.	2d\	-ca-	.	2B-X\	-ca-	.	2g\	-ca-	.
2G\	-to	.	2d\	-to	.	2B-\	-to	.	2g\	-to	.
=25	=25	=25	=25	=25	=25	=25	=25	=25	=25	=25	=25
2G#X\	me-	.	4r	.	.	4r	.	.	2b\	me-	.
.	.	.	4d\	me-	.	(4f\	me-	.	.	.	.
2G#\	-o	.	(4en\	.	.	4en\)	.	.	2b\	-o	.
.	.	.	4f\)	-o	.	4d\	-o	.	.	.	.
=26	=26	=26	=26	=26	=26	=26	=26	=26	=26	=26	=26
(2A\	mun-	.	(2e\	mun-	.	1c	mu(n)-	.	1a	mu(n)-	.
2D#X/)	.	.	2f#X\)	.	.	.	.	.	.	.	.
=27	=27	=27	=27	=27	=27	=27	=27	=27	=27	=27	=27
1E	-da	.	1e	-da	.	4c\	.	.	4a\	.	.
.	.	.	.	.	.	8Bn\L	.	.	8g#X\L	.	.
!	!	!	!	!	!	!	!	!	!LO:SIC:s=8f#:v	!	!
.	.	.	.	.	.	8A\J	.	.	8f\J	.	.
.	.	.	.	.	.	2B\	-da	.	2g#\	-da	.
=28	=28	=28	=28	=28	=28	=28	=28	=28	=28	=28	=28
!LO:TX:a:t=Quoniam tacet	!	!	!	!	!	!	!	!	!	!	!
!LO:TX:b:t=e	!	!	!	!	!	!	!	!	!	!	!
!LO:TX:t=P:problem=1F poprawione na 1E	!	!	!LO:TX:a:t=Quoniam \ntacet	!	!	!LO:TX:a:t=Quoniam \ntacet	!	!	!LO:TX:a:t=Quoniam \ntacet	!	!
1E;	me.	.	1e;	me	.	1B;	me	.	1g#X<;	me.	.
!LO:LB:g=original	!	!	!LO:LB:g=original	!	!	!LO:LB:g=original	!	!	!LO:LB:g=original	!	!
=29||	=29||	=29||	=29||	=29||	=29||	=29||	=29||	=29||	=29||	=29||	=29||
*M2/2	*	*	*M2/2	*	*	*M2/2	*	*	*M2/2	*	*
*met(c|)	*	*	*met(c|)	*	*	*met(c)	*	*	*met(c|)	*	*
!	!	!	!	!	!	!LO:TX:t=P:problem=metrum C	!	!	!	!	!
0r	.	.	2r	.	.	4e\	Ti-	.	0r	.	.
.	.	.	.	.	.	4d\	-bi	.	.	.	.
.	.	.	4e\	Ti-	.	(4c\	So-	.	.	.	.
.	.	.	4d\	-bi	.	4B\)	.	.	.	.	.
=30	=30	=30	=30	=30	=30	=30	=30	=30	=30	=30	=30
.	.	.	(4c\	So-	.	4e\	-li	.	.	.	.
.	.	.	4B\)	.	.	4d\	pec-	.	.	.	.
.	.	.	4A\	-li	.	4c\	-ca-	.	.	.	.
.	.	.	4G#X/	pec-	.	4B\	.	.	.	.	.
=31	=31	=31	=31	=31	=31	=31	=31	=31	=31	=31	=31
!	!	!LO:DY:a:t=for	!	!	!	!	!	!	!	!	!
4AA/	Ti-	f	4A\	-ca-	.	2.c\	.	.	4e\	Ti-	.
4A\	-bi	.	4c\	.	.	.	.	.	4e\	-bi	.
(4D\	So-	.	2d\	.	.	.	.	.	(4f\	so-	.
4G\)	.	.	.	.	.	[4B\	.	.	4g\)	.	.
=32	=32	=32	=32	=32	=32	=32	=32	=32	=32	=32	=32
4C/	-li	.	2c\	.	.	4B\]	.	.	4g\	-li	.
2F\	pec-	.	.	.	.	4A\	.	.	4a\	pec-	.
.	.	.	4d\	.	.	2B\	.	.	2g\	-ca-	.
4E\	-ca-	.	4c\	.	.	.	.	.	.	.	.
=33	=33	=33	=33	=33	=33	=33	=33	=33	=33	=33	=33
4E\	.	.	2c\	.	.	2A\	.	.	2f#X\	.	.
4D#X\	.	.	.	.	.	.	.	.	.	.	.
2E;\	-vi	.	2B;\	-vi	.	2G#X;/	-vi	.	2e;\	-vi	.
=34	=34	=34	=34	=34	=34	=34	=34	=34	=34	=34	=34
1r	.	.	1r	.	.	4r	.	.	2e\	et	.
.	.	.	.	.	.	4c\	et	.	.	.	.
.	.	.	.	.	.	4d\	ma-	.	4f\	ma-	.
.	.	.	.	.	.	4c\	-lu(m)	.	4f#X\	-lu(m)	.
=35	=35	=35	=35	=35	=35	=35	=35	=35	=35	=35	=35
2r	.	.	2r	.	.	4B\	co-	.	4g\	co-	.
.	.	.	.	.	.	8e\	-ra(m)	.	8g#X\	-ra(m)	.
.	.	.	.	.	.	8d\	te	.	8g#\	te	.
2A\	et	.	4r	.	.	2c\	fe-	.	2a\	fe-	.
.	.	.	4e\	et	.	.	.	.	.	.	.
=36	=36	=36	=36	=36	=36	=36	=36	=36	=36	=36	=36
4D\	ma-	.	4f\	ma-	.	4c\	.	.	4a\	.	.
4G\	-lu(m)	.	4f\	-lu(m)	.	2B\	.	.	2gn\	.	.
4C/	co-	.	4e\	co-	.	.	.	.	.	.	.
8F\	-ra(m)	.	8e\	-ra(m)	.	4A\	.	.	4f\	.	.
8F\	te	.	8e\	te	.	.	.	.	.	.	.
=37	=37	=37	=37	=37	=37	=37	=37	=37	=37	=37	=37
4F\	fe-	.	4d\	fe-	.	4B\	.	.	2g\	.	.
4E\	.	.	4e\	.	.	2c\	.	.	.	.	.
4Dn\	.	.	2f\	.	.	.	.	.	4a\	.	.
4G\	.	.	.	.	.	4B\	.	.	4g\	.	.
=38	=38	=38	=38	=38	=38	=38	=38	=38	=38	=38	=38
2C/	-ci	.	2e;\	-ci	.	2c;\	-ci	.	2g;\	-ci	.
!	!	!LO:DY:a:t=for	!	!	!LO:DY:a:t=for&colon;	!	!	!LO:DY:b:t=forte	!	!	!LO:DY:a:t=for&colon;
4F\	ut	f	4A\	ut	f	4c\	ut	f	4f\	ut	f
*custos:E	*	*	*custos:B	*	*	*custos:c	*	*	*	*	*
4F\	ju-	.	4A\	ju-	.	4c\	ju-	.	4f\	ju-	.
!LO:LB:g=original	!	!	!LO:LB:g=original	!	!	!LO:LB:g=original	!	!	!	!	!
=39	=39	=39	=39	=39	=39	=39	=39	=39	=39	=39	=39
4E\	-[sti]-	.	4B-X\	-sti-	.	4c\	-sti-	.	4g\	-sti-	.
4C/	-fi-	.	4B-\	-fi-	.	4c\	-fi-	.	4g\	-fi-	.
4F\	-ce-	.	4A\	-ce-	.	4c\	-ce-	.	4f\	-ce-	.
*	*	*	*	*	*	*	*	*	*custos:g	*	*
4F\	-ris	.	4A\	-ris	.	4c\	-ris	.	4f\	-ris	.
!	!	!	!	!	!	!	!	!	!LO:LB:g=original	!	!
=40	=40	=40	=40	=40	=40	=40	=40	=40	=40	=40	=40
4E\	in	.	4B-X\	in	.	4c\	in	.	4g\	in	.
4C/	ser-	.	4B-\	ser-	.	4c\	ser-	.	4g\	ser-	.
4F\	-mo-	.	4A\	-mo-	.	4c\	-mo-	.	4f\	-mo-	.
8F\	-ni-	.	8A\	-ni-	.	8c\	-ni-	.	8f\	-ni-	.
8F\	-b(us)	.	8A\	-b(us)	.	8c\	-b(us)	.	8f\	-b(us)	.
=41	=41	=41	=41	=41	=41	=41	=41	=41	=41	=41	=41
(4F\	tu-	.	2B-X\	tu-	.	(4d\	tu-	.	2g\	tu-	.
4E\)	.	.	.	.	.	4c\)	.	.	.	.	.
2F;\	-is	.	2A;\	-is	.	2c;\	-is	.	2f;\	-is	.
=42	=42	=42	=42	=42	=42	=42	=42	=42	=42	=42	=42
(8F#X\L	et	.	2A\	et	.	4r	.	.	2d\	et	.
8E\	.	.	.	.	.	.	.	.	.	.	.
8F#\	.	.	.	.	.	4c\	et	.	.	.	.
8D\J)	.	.	.	.	.	.	.	.	.	.	.
4G#X\	vin-	.	4Bn\	vin-	.	4B\	vin-	.	4d\	vin-	.
4G#\	-cas	.	4G\	-cas	.	4B\	-cas	.	4d\	-cas	.
=43	=43	=43	=43	=43	=43	=43	=43	=43	=43	=43	=43
8G#X\L	et	.	2B\	et	.	4r	.	.	2e\	et	.
!LO:SIC:s=8F#:v	!	!	!	!	!	!	!	!	!	!	!
(8F\	.	.	.	.	.	.	.	.	.	.	.
8G#\	.	.	.	.	.	4d\	et	.	.	.	.
8E\J)	.	.	.	.	.	.	.	.	.	.	.
4A\	vin-	.	4c\	vin-	.	4c\	vin-	.	4e\	vin-	.
4AA/	-cas	.	4A\	-cas	.	4c\	-cas	.	4e\	-cas	.
=44	=44	=44	=44	=44	=44	=44	=44	=44	=44	=44	=44
2A\	Cu(m)	.	4r	.	.	2c\	cu(m)	.	2e\	cu(m)	.
.	.	.	4A\	cu(m)	.	.	.	.	.	.	.
2Fn\	ju-	.	2A\	ju-	.	2c\	ju-	.	2f\	ju-	.
=45	=45	=45	=45	=45	=45	=45	=45	=45	=45	=45	=45
!	!	!	!	!	!LO:DY:a:t=pia&colon;	!	!	!LO:DY:a:t=piano	!	!	!LO:DY:a:t=pia&colon;
2D#X\	-di-	.	2A\	-di-	p	2c\	-di-	p	2f#X\	-di-	p
[2E\	-ca-	.	4G#X/	-ca-	.	(4B\	-ca-	.	[2e\	-ca-	.
.	.	.	[>4A/	.	.	4c\)	.	.	.	.	.
=46	=46	=46	=46	=46	=46	=46	=46	=46	=46	=46	=46
2E\]	.	.	4A/]	.	.	2B\	.	.	2e\]	.	.
.	.	.	4G#X/	.	.	.	.	.	.	.	.
!LO:TX:a:t=Ec ce enim\ntacet	!	!	!LO:TX:a:t=Ecce enim \ntacet	!	!	!LO:TX:a:t=Ecce enim \ntacet.	!	!	!LO:TX:a:t=Ecce enim tacet	!	!
2AA/	-ris.	.	2A;</	-ris.	.	2c#X;\	-ris.	.	2e;\	-ris.	.
!LO:LB:g=original	!	!	!LO:LB:g=original	!	!	!LO:LB:g=original	!	!	!LO:LB:g=original	!	!
=47||	=47||	=47||	=47||	=47||	=47||	=47||	=47||	=47||	=47||	=47||	=47||
*M2/2	*	*	*M2/2	*	*	*M2/2	*	*	*M2/2	*	*
*met(c|)	*	*	*met(c|)	*	*	*met(c|)	*	*	*met(c|)	*	*
1r	.	.	1r	.	.	4e\	Ec-	.	4g\	Ec-	.
.	.	.	.	.	.	4d\	-ce	.	4f\	-ce	.
.	.	.	.	.	.	4c\	e-	.	4e\	e-	.
.	.	.	.	.	.	4B\	-nim	.	4d\	-nim	.
=48	=48	=48	=48	=48	=48	=48	=48	=48	=48	=48	=48
2r	.	.	2r	.	.	4e\	ve-	.	4g\	ve-	.
.	.	.	.	.	.	4d\	-ri-	.	4f\	-ri-	.
4c\	Ec-	.	4e\	Ec-	.	4e\	-ta-	.	[2g\	-ta-	.
4B\	-ce	.	4d\	-ce	.	4f\	.	.	.	.	.
=49	=49	=49	=49	=49	=49	=49	=49	=49	=49	=49	=49
4c\	e-	.	4c\	e-	.	4e\	.	.	1g]	.	.
4G\	-nim	.	4B\	-nim	.	4d\	.	.	.	.	.
4c\	ve-	.	4e\	ve-	.	4e\	.	.	.	.	.
4B\	-ri-	.	4d\	-ri-	.	4f\	.	.	.	.	.
=50	=50	=50	=50	=50	=50	=50	=50	=50	=50	=50	=50
4c\	-ta-	.	4c\	-ta-	.	2e\	-te(m)	.	2g\	-te(m)	.
4C/	te(m)	.	4c\	te(m)	.	.	.	.	.	.	.
(2c\	di-	.	4r	.	.	2e\	di-	.	2g\	di-	.
.	.	.	4c\	.	.	.	.	.	.	.	.
=51	=51	=51	=51	=51	=51	=51	=51	=51	=51	=51	=51
2F#X\)	.	.	2c\	di-	.	1d	-le-	.	2a\	.	.
2G\	-le-	.	2B\	-le-	.	.	.	.	2g\	-le-	.
=52	=52	=52	=52	=52	=52	=52	=52	=52	=52	=52	=52
2G#X\	-xi-	.	2B\	-xi-	.	2d\	-xi-	.	2f\	-xi-	.
2A;\	-sti	.	2c;\	-sti	.	2c;\	-sti	.	2e;\	-sti	.
=53	=53	=53	=53	=53	=53	=53	=53	=53	=53	=53	=53
!	!	!	!	!	!LO:DY:a:t=pia	!	!	!LO:DY:a:t=piano	!	!	!LO:DY:a:t=pia&colon;
4r	.	.	4r	.	p	2c\	in-	p	2e\	in-	p
!	!	!LO:DY:b:t=pian.	!	!	!	!	!	!	!	!	!
4A\	in-	p	4c\	in-	.	.	.	.	.	.	.
4D/	-cer-	.	4c\	-cer-	.	4d\	-cer-	.	4f\	-cer-	.
4Gn\	-ta	.	4B\	-ta	.	4d\	-ta	.	4f\	-ta	.
=54	=54	=54	=54	=54	=54	=54	=54	=54	=54	=54	=54
4C/	et	.	4B\	et	.	2c\	et	.	(4e\	et	.
2F\	.	.	4A\	.	.	.	.	.	4f\)	.	.
.	.	.	4B\	.	.	(4d\	oc-	.	2g\	oc-	.
*custos:D	*	*	*	*	*	*	*	*	*	*	*
4E\	oc-	.	[4c\	oc-	.	4e\)	.	.	.	.	.
=55	=55	=55	=55	=55	=55	=55	=55	=55	=55	=55	=55
2D/	-cul-	.	4c\]	-cul-	.	(4A/	-cul-	.	2f\	-cul-	.
.	.	.	(4B\	.	.	4G/)	.	.	.	.	.
2C/	-ta	.	2c\)	-ta	.	2G/	-ta	.	2e\	-ta	.
=56	=56	=56	=56	=56	=56	=56	=56	=56	=56	=56	=56
1r	.	.	4c\	Sa-	.	4e\	Sa-	.	1r	.	.
.	.	.	4c\	-pi-	.	4e\	-pi-	.	.	.	.
.	.	.	4B\	-en-	.	4d\	-e(n)-	.	.	.	.
.	.	.	8A\	-ti-	.	8c\	-ti-	.	.	.	.
*	*	*	*custos:G	*	*	*custos:B	*	*	*	*	*
.	.	.	8A\	-ae	.	8c\	-ae	.	.	.	.
!	!	!	!LO:LB:g=original	!	!	!LO:LB:g=original	!	!	!	!	!
=57	=57	=57	=57	=57	=57	=57	=57	=57	=57	=57	=57
!	!	!LO:DY:a:t=pia	!	!	!	!	!	!	!	!	!
4E\	Sa-	p	4G#X/	tu-	.	4B\	tu-	.	4e\	Sa-	.
4E\	-pi-	.	8G#/	-ae	.	8B\	-ae	.	4e\	-pi-	.
.	.	.	8A\	ma-	.	8c\	ma-	.	.	.	.
4E\	-e(n)-	.	4B\	-ni-	.	4d\	-ni-	.	4e\	-e(n)-	.
8E\	-ti-	.	4A\	-fe-	.	4c\	-fe-	.	8e\	-ti-	.
*	*	*	*	*	*	*	*	*	*custos:e	*	*
8E\	-ae	.	.	.	.	.	.	.	8e\	-ae	.
!	!	!	!	!	!	!	!	!	!LO:LB:g=original	!	!
=58	=58	=58	=58	=58	=58	=58	=58	=58	=58	=58	=58
4E\	tu-	.	4G#X/	sta-	.	4B\	sta-	.	4e\	tu-	.
8E\	-ae	.	4A/	.	.	(4c\	.	.	8e\	-ae	.
8E\	ma-	.	.	.	.	.	.	.	8e\	ma-	.
4E\	-ni-	.	4B\	.	.	4d\	.	.	4e\	-ni-	.
4E\	-fe-	.	4A\	.	.	4c\)	.	.	4e\	-fe-	.
=59	=59	=59	=59	=59	=59	=59	=59	=59	=59	=59	=59
4E\	-sta-	.	(4G#X/	-sti	.	4B\	.	.	4e\	-sta-	.
4E\	-sti	.	4A/)	.	.	4c\	-sti	.	4e\	-sti	.
2E\	mi-	.	4A/	mi-	.	2B\	mi-	.	2e\	mi-	.
.	.	.	4G#X/	.	.	.	.	.	.	.	.
=60	=60	=60	=60	=60	=60	=60	=60	=60	=60	=60	=60
!LO:TX:a:t=Aspergesme tacet	!	!	!LO:TX:a:t=Aspergesme \ntacet	!	!	!LO:TX:a:t=Aspergesme \ntacet	!	!	!LO:TX:a:t=Aspergesme \ntacet	!	!
1AA;	-hi.	.	1A	-hi.	.	1c#X;	-hi.	.	1e;	-hi.	.
!LO:LB:g=original	!	!	!LO:LB:g=original	!	!	!LO:LB:g=original	!	!	!	!	!
=61||	=61||	=61||	=61||	=61||	=61||	=61||	=61||	=61||	=61||	=61||	=61||
*M3/4	*	*	*M3/4	*	*	*M3/4	*	*	*M3/4	*	*
(4A\	Au-	.	(4A\	Au-	.	4c\	Au-	.	4e\	Au-	.
4G#X\)	.	.	4B\)	.	.	2d\	.	.	2e\	.	.
4E\	.	.	4G#X/	.	.	.	.	.	.	.	.
=62	=62	=62	=62	=62	=62	=62	=62	=62	=62	=62	=62
4A\	-di-	.	4A\	-di-	.	4c\	-di-	.	4e\	-di-	.
4G#X\	-tu-	.	4B\	-tu-	.	4d\	-tu-	.	4e\	-tu-	.
4E\	-i	.	4G#X/	-i	.	4d\	-i	.	4e\	-i	.
=63	=63	=63	=63	=63	=63	=63	=63	=63	=63	=63	=63
4A\	me-	.	8A\L	me-	.	8c\L	me-	.	4e\	me-	.
.	.	.	8B\J	.	.	8B\J	.	.	.	.	.
4AA/	-o	.	4c\	-o	.	4A\	-o	.	4e\	-o	.
4r	.	.	4r	.	.	4r	.	.	4r	.	.
=64	=64	=64	=64	=64	=64	=64	=64	=64	=64	=64	=64
(4c\	da-	.	(4c\	da-	.	4e\	da-	.	4g\	da-	.
4B\)	.	.	4d\)	.	.	2f\	-bis	.	2g\	-bis	.
4Gn\	-bis	.	4B\	-bis	.	.	.	.	.	.	.
=65	=65	=65	=65	=65	=65	=65	=65	=65	=65	=65	=65
(4c\	da-	.	(4c\	da-	.	4e\	da-	.	4g\	da-	.
4B\)	.	.	4d\)	.	.	2f\	-bis	.	2g\	-bis	.
4Gn\	-bis	.	4B\	-bis	.	.	.	.	.	.	.
=66	=66	=66	=66	=66	=66	=66	=66	=66	=66	=66	=66
4c\	gau-	.	8c\	gau-	.	8e\	gau-	.	8g\	gau-	.
.	.	.	8d\	-di-	.	8d\	-di-	.	8g\	-di-	.
8C/	-di-	.	4e\	-u(m)	.	4c\	-u(m)	.	4g\	-um	.
8C/	-u(m)	.	.	.	.	.	.	.	.	.	.
*	*	*	*	*	*	*	*	*	*custos:g	*	*
4r	.	.	4r	.	.	4r	.	.	4r	.	.
!	!	!	!	!	!	!	!	!	!LO:LB:g=original	!	!
=67	=67	=67	=67	=67	=67	=67	=67	=67	=67	=67	=67
2.c\	et	.	2.r	.	.	2.e\	et	.	2.g\	et	.
=68	=68	=68	=68	=68	=68	=68	=68	=68	=68	=68	=68
!	!	!	!	!	!LO:DY:a:t=for	!	!	!	!	!	!
4B\	lae-	.	2.f\	et	f	(4d\	lae-	.	2.g\	lae-	.
(4A\	.	.	.	.	.	4c\	.	.	.	.	.
4G\)	.	.	.	.	.	4B\)	.	.	.	.	.
=69	=69	=69	=69	=69	=69	=69	=69	=69	=69	=69	=69
4C/	.	.	4e\	lae-	.	2A\	-ti-	.	2g\	-ti-	.
4D/	-ti-	.	4d\	-ti-	.	.	.	.	.	.	.
4D/	-ti-	.	4d\	-ti-	.	4A\	-ti-	.	4f#X\	-ti-	.
=70	=70	=70	=70	=70	=70	=70	=70	=70	=70	=70	=70
2G\	-am	.	2d\	-am	.	2B\	-am	.	2g\	-am	.
4r	.	.	4r	.	.	4r	.	.	4r	.	.
!LO:LB:g=original	!	!	!	!	!	!	!	!	!	!	!
=71	=71	=71	=71	=71	=71	=71	=71	=71	=71	=71	=71
2.r	.	.	4B\	et	.	4d\	et	.	2.r	.	.
.	.	.	4B\	e-	.	4d\	e-	.	.	.	.
*	*	*	*custos:B	*	*	*	*	*	*	*	*
.	.	.	4B\	-xul-	.	4d\	-xul-	.	.	.	.
!	!	!	!LO:LB:g=original	!	!	!	!	!	!	!	!
=72	=72	=72	=72	=72	=72	=72	=72	=72	=72	=72	=72
4G\	et	.	4B\	-ta-	.	[2.d\	-ta-	.	4g\	et	.
4F#X\	e-	.	2c\	.	.	.	.	.	4a\	e-	.
4D\	-xul-	.	.	.	.	.	.	.	4f#X\	-xul-	.
=73	=73	=73	=73	=73	=73	=73	=73	=73	=73	=73	=73
*	*	*	*	*	*	*custos:d	*	*	*	*	*
4G\	-ta-	.	4B\	.	.	2.d\]	.	.	4g\	-ta-	.
(4F#X\	.	.	2c\	.	.	.	.	.	(4a\	.	.
4D\)	.	.	.	.	.	.	.	.	4f#X\)	.	.
!	!	!	!	!	!	!LO:LB:g=original	!	!	!	!	!
=74	=74	=74	=74	=74	=74	=74	=74	=74	=74	=74	=74
4G\	.	.	2B\	-bunt	.	2d\	-bunt	.	2g\	-bunt	.
4GG/	-bunt	.	.	.	.	.	.	.	.	.	.
4r	.	.	4r	.	.	4r	.	.	4r	.	.
=75	=75	=75	=75	=75	=75	=75	=75	=75	=75	=75	=75
2.r	.	.	4c\	et	.	4e\	et	.	2.r	.	.
.	.	.	4c\	e-	.	4e\	e-	.	.	.	.
.	.	.	4c\	-xul-	.	4e\	-xul-	.	.	.	.
=76	=76	=76	=76	=76	=76	=76	=76	=76	=76	=76	=76
4A\	et	.	4c\	-ta-	.	2.e\	-ta-	.	4a\	et	.
4G#X\	e-	.	2d\	.	.	.	.	.	4b\	e-	.
4E\	-xul-	.	.	.	.	.	.	.	4g#X\	-xul-	.
=77	=77	=77	=77	=77	=77	=77	=77	=77	=77	=77	=77
4A\	-ta-	.	4c\	.	.	2.e\	-bunt	.	4a\	-ta-	.
4G#X\	.	.	2d\	-bunt	.	.	.	.	(4b\	.	.
4E\	-bu(n)t	.	.	.	.	.	.	.	4g#X\)	-bunt	.
=78	=78	=78	=78	=78	=78	=78	=78	=78	=78	=78	=78
4A\	oſ-	.	4c\	oſ-	.	4e\	oſ-	.	4a\	oſ-	.
4AA/	-sa	.	4c\	-sa	.	4e\	-sa	.	4a\	-sa	.
*	*	*	*	*	*	*	*	*	*custos:e	*	*
4r;	.	.	4r	.	.	4r	.	.	4r	.	.
!	!	!	!	!	!	!	!	!	!LO:LB:g=original	!	!
=79	=79	=79	=79	=79	=79	=79	=79	=79	=79	=79	=79
!	!	!LO:DY:b:t=pia	!	!	!	!	!	!	!	!	!LO:DY:a:t=pia&colon;
2.A\	hu-	p	2.r	.	.	2.c\	hu-	.	2.e\	hu-	p
=80	=80	=80	=80	=80	=80	=80	=80	=80	=80	=80	=80
!	!	!	!	!	!LO:DY:a:t=pian.	!	!	!	!	!	!
2.Fn\	-mi-	.	2.A\	hu-	p	2.c\	-mi-	.	2.f\	-mi-	.
=81	=81	=81	=81	=81	=81	=81	=81	=81	=81	=81	=81
2.D#X\	-li-	.	4A\	-mi-	.	2.c\	-li-	.	2.f#X\	-li-	.
.	.	.	2A\	-li-	.	.	.	.	.	.	.
=82	=82	=82	=82	=82	=82	=82	=82	=82	=82	=82	=82
2.E\	-a-	.	2A\	-a-	.	2c\	-a-	.	2.e\	-a-	.
.	.	.	8G#X/L	.	.	8B\L	.	.	.	.	.
.	.	.	8F#X/J	.	.	8A\J	.	.	.	.	.
=83	=83	=83	=83	=83	=83	=83	=83	=83	=83	=83	=83
!LO:TX:a:t=averte facie(m) \ntacet	!	!	!LO:TX:a:t=Averte \nfaciem \ntacet	!	!	!LO:TX:a:t=Averte faciem tacet.	!	!	!LO:TX:a:t=Averte facie(m)\n tacet	!	!
2.E;\	-ta	.	2.G#X;/	-ta.	.	2.B;\	-ta.	.	2.e;\	-ta.	.
!LO:LB:g=original	!	!	!LO:LB:g=original	!	!	!LO:LB:g=original	!	!	!	!	!
=84||	=84||	=84||	=84||	=84||	=84||	=84||	=84||	=84||	=84||	=84||	=84||
*M2/2	*	*	*M2/2	*	*	*M2/2	*	*	*M2/2	*	*
*met(c|)	*	*	*met(c|)	*	*	*met(c|)	*	*	*met(c|)	*	*
(2A\	Cor	.	(2A\	Cor	.	(2c\	Cor	.	1e	Cor	.
2E\)	.	.	2G#X/)	.	.	2B\)	.	.	.	.	.
=85	=85	=85	=85	=85	=85	=85	=85	=85	=85	=85	=85
2C/	mu(n)-	.	2A/	mu(n)-	.	2c\	mu(n)-	.	2e\	mu(n)-	.
2AA/	-du(m)	.	2A/	-du(m)	.	2c\	-du(m)	.	2e\	-du(m)	.
=86	=86	=86	=86	=86	=86	=86	=86	=86	=86	=86	=86
[1A	Cre-	.	2c\	Cre-	.	1c	Cre-	.	1e	Cre-	.
.	.	.	2e\	.	.	.	.	.	.	.	.
=87	=87	=87	=87	=87	=87	=87	=87	=87	=87	=87	=87
2A\]	.	.	2d\	-a	.	1B	-a	.	2f\	-a	.
2G\	-a	.	(4e\	in	.	.	.	.	(4g\	in	.
.	.	.	4d\)	.	.	.	.	.	4f\)	.	.
=88	=88	=88	=88	=88	=88	=88	=88	=88	=88	=88	=88
2G\	in	.	2c\	me	.	1A	in	.	2e\	me	.
2F\	me	.	(4d\	.	.	.	.	.	(4f\	.	.
.	.	.	4c\)	.	.	.	.	.	4e\)	.	.
=89	=89	=89	=89	=89	=89	=89	=89	=89	=89	=89	=89
2F\	De-	.	2B\	De-	.	2G/	me	.	2d\	De-	.
2E\	.	.	2e\	.	.	2c\	De-	.	2g\	.	.
=90	=90	=90	=90	=90	=90	=90	=90	=90	=90	=90	=90
2D\	.	.	1f	.	.	2c\	.	.	2a\	.	.
*	*	*	*	*	*	*	*	*	*custos:g	*	*
2G\	.	.	.	.	.	2B\	.	.	2g\	.	.
!	!	!	!	!	!	!	!	!	!LO:LB:g=original	!	!
=91	=91	=91	=91	=91	=91	=91	=91	=91	=91	=91	=91
1C;	-us	.	1e;	-us	.	1c;	-us	.	1g;	-us.	.
=92	=92	=92	=92	=92	=92	=92	=92	=92	=92	=92	=92
2r	.	.	1c	et	.	1e	et	.	2r	.	.
2A\	et	.	.	.	.	.	.	.	2a\	et	.
=93	=93	=93	=93	=93	=93	=93	=93	=93	=93	=93	=93
2G#X\	Spi-	.	2B\	Spi-	.	2e\	Spi-	.	2b\	Spi-	.
4E\	-ri-	.	4B\	-ri-	.	4d\	-ri-	.	4g#X\	-ri-	.
4E\	-tu(m)	.	4B\	-tu(m)	.	4d\	-tu(m)	.	4g#\	-tu(m)	.
=94	=94	=94	=94	=94	=94	=94	=94	=94	=94	=94	=94
2A\	re-	.	2A\	re-	.	2c\	re-	.	2e\	re-	.
*custos:A	*	*	*	*	*	*	*	*	*	*	*
2G#X\	-ctu(m)	.	2B\	-ctu(m)	.	2d\	-ctu(m)	.	2e\	-ctu(m)	.
!LO:PB:g=original	!	!	!	!	!	!	!	!	!	!	!
=95	=95	=95	=95	=95	=95	=95	=95	=95	=95	=95	=95
4A\	in-	.	4A\	in-	.	4c\	in-	.	4e\	in-	.
4AA/	-no-	.	4A\	-no-	.	4c\	-no-	.	4e\	-no-	.
*	*	*	*custos:c	*	*	*	*	*	*	*	*
!	!	!	!LO:TX:t=P:problem=usunięty takt	!	!	!	!	!	!	!	!
2AA/	-va	.	2A\	-va	.	2c\	-va	.	2e\	-va	.
!	!	!	!LO:LB:g=original	!	!	!	!	!	!	!	!
=96	=96	=96	=96	=96	=96	=96	=96	=96	=96	=96	=96
2A\	in	.	2c\	in	.	2c\	in	.	2e\	in	.
!	!	!	!	!	!	!LO:TX:t=P:problem=poprawiony tekst	!	!	!	!	!
2G#X\	vi-	.	2B\	vi-	.	2d\	vi-	.	2e\	vi-	.
=97	=97	=97	=97	=97	=97	=97	=97	=97	=97	=97	=97
2A\	-sce-	.	2A\	-sce-	.	2c\	-sce-	.	2e\	-sce-	.
4D#X\	-ri-	.	4A\	-ri-	.	4c\	-ri-	.	4f#X\	-ri-	.
*	*	*	*	*	*	*custos:c	*	*	*	*	*
4D#\	-bus	.	4A\	-b(us)	.	4c\	-bus	.	4f#\	-b(us)	.
!	!	!	!	!	!	!LO:LB:g=original	!	!	!	!	!
=98	=98	=98	=98	=98	=98	=98	=98	=98	=98	=98	=98
!	!	!LO:DY:b:t=pia	!	!	!LO:DY:a:t=pian.	!	!	!	!LO:TX:t=P:tekst:problem= tuis poprawione na meis	!	!LO:DY:a:t=pia&colon;
1E	me-	p	(<2A\	me-	p	2c\	me-	p	1e	me-	p
.	.	.	4G#X/	.	.	(4B\	.	.	.	.	.
.	.	.	4F#X/)	.	.	4A\)	.	.	.	.	.
=99	=99	=99	=99	=99	=99	=99	=99	=99	=99	=99	=99
!LO:TX:a:t=ne projicias me \ntacet	!	!	!LO:TX:a:t=ne projicias me \ntacet	!	!	!LO:TX:a:t=Ne projicias \ntacet	!	!	!LO:TX:a:t=Ne projicias me \ntacet	!	!
1E;	-is	.	1G#X;	-is.	.	1B	-is.	.	1e;	-is	.
!LO:LB:g=original	!	!	!LO:PB:g=original	!	!	!	!	!	!LO:LB:g=original	!	!
=100||	=100||	=100||	=100||	=100||	=100||	=100||	=100||	=100||	=100||	=100||	=100||
*M3/4	*	*	*M3/4	*	*	*M3/4	*	*	*M3/4	*	*
!	!	!	!	!	!LO:DY:a:t=for&colon;	!	!	!LO:DY:b:t=fort&colon;	!	!	!LO:DY:a:t=for.
(4C/	Red-	.	2c\	Red-	f	2e\	Red-	f	4g\	Red-	f
4E\)	.	.	.	.	.	.	.	.	2g\	-de	.
4G\	-de	.	4B\	-de	.	4d\	-de	.	.	.	.
=101	=101	=101	=101	=101	=101	=101	=101	=101	=101	=101	=101
4c\	mi-	.	4c\	mi-	.	4e\	mi-	.	4g\	mi-	.
4G\	-hi	.	4c\	-hi	.	4e\	-hi	.	4g\	-hi	.
4E\	lae-	.	4c\	lae-	.	4e\	lae-	.	4g\	lae-	.
=102	=102	=102	=102	=102	=102	=102	=102	=102	=102	=102	=102
8C/	-ti-	.	8c\	-ti-	.	8e\	-ti-	.	8g\	-ti-	.
8C/	-ti-	.	8c\	-ti-	.	8e\	-ti-	.	8g\	-ti-	.
4C/	-am	.	4c\	-am	.	4e\	-am	.	4g\	-am	.
4C/	.	.	4r	.	.	4r	.	.	4r	.	.
=103	=103	=103	=103	=103	=103	=103	=103	=103	=103	=103	=103
!LO:N:vis=0	!	!	!	!	!LO:DY:a:t=pian.	!	!	!LO:DY:a:t=pian	!LO:N:vis=0	!	!
1.r	.	.	8B\L	Sa-	p	8d\L	Sa-	p	1.r	.	.
.	.	.	8c\J	.	.	8e\J	.	.	.	.	.
.	.	.	4d\	-lu-	.	4f\	-lu-	.	.	.	.
.	.	.	4B\	.	.	4d\	.	.	.	.	.
=104	=104	=104	=104	=104	=104	=104	=104	=104	=104	=104	=104
.	.	.	8c\L	-ta-	.	8e\L	-ta-	.	.	.	.
.	.	.	8d\J	.	.	8f\J	.	.	.	.	.
.	.	.	4e\	.	.	4g\	.	.	.	.	.
.	.	.	4c\	.	.	4e\	.	.	.	.	.
=105	=105	=105	=105	=105	=105	=105	=105	=105	=105	=105	=105
!	!	!LO:DY:a:t=pian	!	!	!	!	!	!	!	!	!LO:DY:a:t=Pia&colon;
2.G\	Sa-	p	8B\L	.	.	8d\L	.	.	2.g\	Sa-	p
.	.	.	8c\J	.	.	8e\J	.	.	.	.	.
.	.	.	4d\	.	.	4f\	.	.	.	.	.
*	*	*	*	*	*	*custos:e	*	*	*	*	*
.	.	.	4B\	.	.	4d\	.	.	.	.	.
!	!	!	!	!	!	!LO:PB:g=original	!	!	!	!	!
=106	=106	=106	=106	=106	=106	=106	=106	=106	=106	=106	=106
2.G\	-lu-	.	8c\L	.	.	8e\L	.	.	2.g\	-lu-	.
.	.	.	8d\J	.	.	8f\J	.	.	.	.	.
.	.	.	4e\	.	.	4g\	.	.	.	.	.
.	.	.	4c\	.	.	4e\	.	.	.	.	.
=107	=107	=107	=107	=107	=107	=107	=107	=107	=107	=107	=107
4G\	-ta-	.	8B\L	.	.	8d\L	.	.	4g\	-ta-	.
.	.	.	8c\J	.	.	8e\J	.	.	.	.	.
2G\	-ris	.	4d\	.	.	4f\	.	.	2g\	-ris	.
.	.	.	4B\	-ris	.	4d\	-ris	.	.	.	.
=108	=108	=108	=108	=108	=108	=108	=108	=108	=108	=108	=108
4C/	tu-	.	4c\	tu-	.	4e\	tu-	.	4g\	tu-	.
4C/	-i	.	4c\	-i	.	4e\	-i	.	4g\	-i	.
4r;	.	.	4r;	.	.	4r;	.	.	4r;	.	.
=109	=109	=109	=109	=109	=109	=109	=109	=109	=109	=109	=109
!	!	!LO:DY:b:t=for.	!	!	!	!	!	!LO:DY:b:t=for.	!	!	!LO:DY:a:t=for&colon;
4c\	et	f	4r	.	.	2.e\	et	f	(4g\	et	f
*	*	*	*custos:c	*	*	*	*	*	*	*	*
!	!	!	!	!LO:DY:a:t=for.	!LO:DY:a	!	!	!	!	!	!
(4A\	.	.	2c\	et	f	.	.	.	2a\)	.	.
4F#X\)	.	.	.	.	.	.	.	.	.	.	.
!	!	!	!LO:LB:g=original	!	!	!	!	!	!	!	!
=110	=110	=110	=110	=110	=110	=110	=110	=110	=110	=110	=110
4B\	Spi-	.	4c\	Spi-	.	4d\	Spi-	.	4f#X\	Spi-	.
4G\	-ri-	.	4B\	-ri-	.	4d\	-ri-	.	4g\	-ri-	.
4E\	-tu	.	4B\	-tu	.	4d\	-tu	.	4g\	-tu	.
=111	=111	=111	=111	=111	=111	=111	=111	=111	=111	=111	=111
(4A\	prin-	.	4B\	prin-	.	4c\	prin-	.	4e\	prin-	.
4F#X\)	.	.	2A\	-ci-	.	2c\	-ci-	.	2f#X\	-ci-	.
4D\	-ci-	.	.	.	.	.	.	.	.	.	.
=112	=112	=112	=112	=112	=112	=112	=112	=112	=112	=112	=112
4G\	-pa-	.	4G/	-pa-	.	4B\	-pa-	.	4d\	-pa-	.
4GG/	-li	.	4G/	-li	.	4B\	-li	.	4d\	-li	.
4r	.	.	4r	.	.	4d\	Con-	.	4r	.	.
=113	=113	=113	=113	=113	=113	=113	=113	=113	=113	=113	=113
(4G\	Con-	.	4B\	Con-	.	2.d\	-fir-	.	(4g\	Con-	.
4F#X\	.	.	2c\	.	.	.	.	.	4a\)	.	.
*custos:G	*	*	*	*	*	*	*	*	*custos:g	*	*
4D\)	.	.	.	.	.	.	.	.	4f#X\	.	.
!LO:LB:g=original	!	!	!	!	!	!	!	!	!LO:PB:g=original	!	!
=114	=114	=114	=114	=114	=114	=114	=114	=114	=114	=114	=114
(4G\	-fir-	.	4B\	-fir-	.	2.d\	-ma	.	(4g\	-fir-	.
4F#X\	.	.	2c\	-ma	.	.	.	.	4a\)	.	.
4D\)	-ma-	.	.	.	.	.	.	.	4f#X\	-ma	.
=115	=115	=115	=115	=115	=115	=115	=115	=115	=115	=115	=115
2G\	-me	.	2B\	me	.	2d\	me	.	2g\	me	.
4r	.	.	4r	.	.	4e\	Co(n)-	.	4r	.	.
=116	=116	=116	=116	=116	=116	=116	=116	=116	=116	=116	=116
4A\	Con-	.	4c\	Con-	.	2.e\	-fir-	.	4a\	Con-	.
(4G#X\	.	.	2d\	.	.	.	.	.	(4b\	.	.
4E\)	.	.	.	.	.	.	.	.	4g#X\)	.	.
=117	=117	=117	=117	=117	=117	=117	=117	=117	=117	=117	=117
4A\	-fir-	.	4c\	-fir-	.	2.e\	-ma	.	4a\	-fir-	.
4G#X\	.	.	2d\	-ma	.	.	.	.	(4b\	.	.
4E\	-ma	.	.	.	.	.	.	.	4g#X\)	-ma	.
=118	=118	=118	=118	=118	=118	=118	=118	=118	=118	=118	=118
2A\	me	.	2c\	me	.	4e\	me	.	2a\	me	.
.	.	.	.	.	.	2e\	Co(n)-	.	.	.	.
4E\	Con-	.	4B\	Con-	.	.	.	.	4g#X\	Con-	.
=119	=119	=119	=119	=119	=119	=119	=119	=119	=119	=119	=119
2.A\	.	.	4c\	-fir-	.	4e\	-fir-	.	(2a\	-fir-	.
*	*	*	*	*	*	*custos:c	*	*	*	*	*
.	.	.	2A\	.	.	2c\	-[[ma]]-	.	.	.	.
.	.	.	.	.	.	.	.	.	4e\)	.	.
!	!	!	!	!	!	!LO:LB:g=original	!	!	!	!	!
=120	=120	=120	=120	=120	=120	=120	=120	=120	=120	=120	=120
!	!	!LO:DY:a:t=pia	!	!	!LO:DY:b:t=pian.	!	!	!LO:DY:a:t=pia&colon;	!	!	!LO:DY:a:t=pia&colon;
2.D\	-[fir]-	p	2.A\	.	p	2.c\	-ma	p	2.f\	-ma	p
=121	=121	=121	=121	=121	=121	=121	=121	=121	=121	=121	=121
2.E\	-ma	.	2A\	.	.	2.B\	.	.	2.e\	.	.
.	.	.	8G#X/L	-ma	.	.	.	.	.	.	.
.	.	.	8F#X/J	.	.	.	.	.	.	.	.
=122	=122	=122	=122	=122	=122	=122	=122	=122	=122	=122	=122
!LO:TX:a:t=Docebo iniquos \ntacet	!	!	!	!	!	!LO:TX:a:t=Do cebo \ntacet	!	!	!LO:TX:a:t=Docebo iniquos \ntacet	!	!
2.E;\	me.	.	2.G#X/	me	.	2.B;\	me.	.	2.e;\	me.	.
!	!	!	!LO:LB:g=original	!	!	!	!	!	!LO:LB:g=original	!	!
!LO:LB:g=original	!	!	!LO:TX:a:t=Docebo \ntacet	!	!	!	!	!	!	!	!
=123||	=123||	=123||	=123||	=123||	=123||	=123||	=123||	=123||	=123||	=123||	=123||
*M2/2	*	*	*M2/2	*	*	*M2/2	*	*	*M2/2	*	*
*met(c|)	*	*	*met(c|)	*	*	*met(c|)	*	*	*met(c|)	*	*
!LO:TX:t=P:problem=brak metrum	!	!	!	!	!	!	!	!	!	!	!
8A\L	Li-	.	8c\L	Li-	.	2c\	Li-	.	2e\	Li-	.
8B\J	.	.	8d\J	.	.	.	.	.	.	.	.
8c\	-be-	.	8e\	-be-	.	.	.	.	.	.	.
8A\	-ra	.	8c\	-ra	.	.	.	.	.	.	.
8G#X\L	li-	.	(8B\L	li-	.	4d\	-be-	.	4e\	-be-	.
8F#X\J	.	.	8A\J)	.	.	.	.	.	.	.	.
8G#\	-be-	.	8B\	-be-	.	4d\	-ra	.	4e\	-ra	.
8E\	-ra	.	8B\	-ra	.	.	.	.	.	.	.
=124	=124	=124	=124	=124	=124	=124	=124	=124	=124	=124	=124
8A\L	me	.	8c\L	me	.	4c\	me	.	4e\	me	.
8B\J	.	.	8d\J	.	.	.	.	.	.	.	.
8c\	de	.	8e\	de	.	8c\	de	.	8e\	de	.
8A\	Sa(n)-	.	8c\	Sa(n)-	.	8c\	-Sa(n)-	.	8e\	-Sa(n)-	.
8G#X\L	-gvi-	.	8B\L	-gvi-	.	4d\	-gvi-	.	4e\	-gvi-	.
8F#X\J	.	.	8A\J	.	.	.	.	.	.	.	.
8G#\	-ni-	.	8B\	-ni-	.	8d\	-ni-	.	8e\	-ni-	.
8E\	-bus	.	8G#X/	-bus	.	8d\	-b(us)	.	8e\	-b(us)	.
=125	=125	=125	=125	=125	=125	=125	=125	=125	=125	=125	=125
2A\	De-	.	2A\	De-	.	2c\	De-	.	2e\	De-	.
2AA/	-us	.	2A\	-us	.	2c\	-us	.	2e\	-us	.
=126	=126	=126	=126	=126	=126	=126	=126	=126	=126	=126	=126
2A\	De-	.	2e\	De-	.	2c\	De-	.	2a\	De-	.
4D\	-us	.	2f\	-us	.	4c\	-us	.	4a\	-us	.
4Gn\	Sa-	.	.	.	.	4B\	-Sa-	.	[4g\	-Sa-	.
=127	=127	=127	=127	=127	=127	=127	=127	=127	=127	=127	=127
4C/	-lu-	.	(4e\	Sa-	.	4B\	.	.	4g\]	.	.
2Fn\	.	.	4c\)	-lu-	.	4A\	.	.	4f\	.	.
.	.	.	4d\	.	.	4B\	-lu-	.	4g\	-lu-	.
4E\	-tis	.	4e\	-tis	.	4c\	-tis	.	4g\	-tis	.
=128	=128	=128	=128	=128	=128	=128	=128	=128	=128	=128	=128
(4D\	me-	.	2f\	me-	.	4c\	me-	.	(4a\	me-	.
4G\)	.	.	.	.	.	4B\	.	.	4g\)	.	.
*	*	*	*	*	*	*custos:e	*	*	*	*	*
!	!	!	!	!	!	!	!	!	!LO:TX:t=P:problem=podwójna kreska poprawiona na pojedynczą kreskę taktową	!	!
2C/	-ae	.	2e\	-ae	.	2c;\	-ae	.	2g;\	-ae	.
!	!	!	!	!	!	!LO:LB:g=original	!	!	!	!	!
=129	=129	=129	=129	=129	=129	=129	=129	=129	=129	=129	=129
!	!	!	!	!	!	!	!	!LO:DY:a:t=pia	!	!	!LO:DY:a:t=pia
1r	.	.	0r	.	.	2e\	et	p	2g\	et	p
.	.	.	.	.	.	4d\	e-	.	4f\	e-	.
.	.	.	.	.	.	4c\	-xul-	.	4e\	-xul-	.
=130	=130	=130	=130	=130	=130	=130	=130	=130	=130	=130	=130
!	!	!LO:DY:b:t=pia	!	!	!	!	!	!	!	!	!
2G\	et	p	.	.	.	4B\	-ta-	.	4d\	-ta-	.
.	.	.	.	.	.	4e\	.	.	4g\	.	.
4G\	e-	.	.	.	.	4d\	.	.	4f\	.	.
*custos:G	*	*	*	*	*	*	*	*	*	*	*
4G\	-xul-	.	.	.	.	4c\	.	.	4e\	.	.
!LO:LB:g=original	!	!	!	!	!	!	!	!	!	!	!
=131	=131	=131	=131	=131	=131	=131	=131	=131	=131	=131	=131
1G	-ta-	.	1r	.	.	4B\	.	.	4d\	.	.
.	.	.	.	.	.	4e\	.	.	4g\	.	.
.	.	.	.	.	.	4d\	.	.	4f\	.	.
*	*	*	*	*	*	*	*	*	*custos:e	*	*
.	.	.	.	.	.	4c\	.	.	4e\	.	.
!	!	!	!LO:LB:g=original	!	!	!	!	!	!LO:LB:g=original	!	!
=132	=132	=132	=132	=132	=132	=132	=132	=132	=132	=132	=132
2G;\	-bit	.	2r;	.	.	4c\	.	.	4e\	.	.
.	.	.	.	.	.	4B;\	-bit	.	4d;\	-bit	.
!	!	!	!	!	!LO:DY:a:t=for	!	!	!LO:DY:b:t=for&colon;	!	!	!LO:DY:a:t=for
8G#X\L	e-	.	4B\	e-	f	4B\	e-	f	4e\	e-	f
8F#X\J	.	.	.	.	.	.	.	.	.	.	.
8G#\L	-xul-	.	4B\	-xul-	.	4d\	-xul-	.	4e\	-xul-	.
8E\J	.	.	.	.	.	.	.	.	.	.	.
=133	=133	=133	=133	=133	=133	=133	=133	=133	=133	=133	=133
4A\	-ta-	.	8A\L	-ta-	.	8c\L	-ta-	.	4e\	-ta-	.
.	.	.	8B\	.	.	8d\	.	.	.	.	.
4A\	-bit	.	8c\J	-bit	.	8e\J	-bit	.	4e\	-bit	.
.	.	.	8A\	.	.	8c\	.	.	.	.	.
8G#X\L	lin-	.	4B\	lin-	.	4d\	lin-	.	4e\	lin-	.
8F#X\J	.	.	.	.	.	.	.	.	.	.	.
8G#\L	-gva	.	4B\	-gva	.	4d\	-gva	.	4e\	-gva	.
8E\J	.	.	.	.	.	.	.	.	.	.	.
=134	=134	=134	=134	=134	=134	=134	=134	=134	=134	=134	=134
4A\	me-	.	4c\	me-	.	4c\	me-	.	4e\	me-	.
8A\	-a	.	8A\	-a	.	8c\	-a	.	8e\	-a	.
8A\	ju-	.	8A\	ju-	.	8c\	ju-	.	8e\	ju-	.
4Fn\	-sti-	.	4A\	-sti-	.	4c\	-sti-	.	4f\	-sti-	.
8D#X\	-ti-	.	8A\	-ti-	.	8c\	-ti-	.	8f#X\	-ti-	.
8D#\	-am	.	8A\	-am	.	8c\	-a(m)	.	8f#\	-am	.
=135	=135	=135	=135	=135	=135	=135	=135	=135	=135	=135	=135
!	!	!LO:DY:a:t=pian.	!	!	!LO:DY:a:t=pian&colon;	!	!	!LO:DY:b:t=pia	!	!	!LO:DY:a:t=pia.
(4E\	tu-	p	4G#X/	tu-	p	4B\	tu-	p	1e	tu-	p
4AA/	.	.	2A/	.	.	4c\	.	.	.	.	.
2E\)	.	.	.	.	.	2B\	.	.	.	.	.
.	.	.	8G#X/L	.	.	.	.	.	.	.	.
.	.	.	8F#X/J	.	.	.	.	.	.	.	.
=136	=136	=136	=136	=136	=136	=136	=136	=136	=136	=136	=136
!	!	!	!LO:TX:a:t=D(omi)ne labia me \ntacet	!	!	!	!	!	!	!	!
!LO:TX:a:t=D(omi)ne labia tacet	!	!	!LO:N:vis=2.	!	!	!LO:TX:a:t=D(omi)ne labia \ntacet	!	!	!LO:TX:a:t=D(omi)ne labia \ntacet	!	!
1E;	-am	.	1G#X	-am.	.	1B;	-am	.	1e;	-am.	.
!LO:LB:g=original	!	!	!LO:LB:g=original	!	!	!LO:LB:g=original	!	!	!LO:LB:g=original	!	!
=137||	=137||	=137||	=137||	=137||	=137||	=137||	=137||	=137||	=137||	=137||	=137||
*M2/2	*	*	*M2/2	*	*	*M2/2	*	*	*M2/2	*	*
*met(c|)	*	*	*met(c|)	*	*	*met(c|)	*	*	*met(c|)	*	*
0r	.	.	1r	.	.	2e\	Quo-	.	0r	.	.
.	.	.	.	.	.	2d\	-ni-	.	.	.	.
=138	=138	=138	=138	=138	=138	=138	=138	=138	=138	=138	=138
.	.	.	2e\	Quo-	.	2c\	-am	.	.	.	.
.	.	.	2d\	-ni-	.	2B\	si	.	.	.	.
=139	=139	=139	=139	=139	=139	=139	=139	=139	=139	=139	=139
2A\	Quo-	.	2c\	-am	.	2e\	vo-	.	1r	.	.
2E\	-ni-	.	2B\	si	.	2d\	.	.	.	.	.
=140	=140	=140	=140	=140	=140	=140	=140	=140	=140	=140	=140
!	!	!	!	!	!	!	!	!LO:DY:b:t=for	!	!	!
2AA/	-am	.	2A\	vo-	.	[1c	.	f	2e\	Quo-	.
!	!	!LO:DY:a:t=for	!	!	!LO:DY:b:t=for	!	!	!	!	!	!
2A\	si	f	2c\	.	f	.	.	.	2e\	-ni-	.
=141	=141	=141	=141	=141	=141	=141	=141	=141	=141	=141	=141
2D\	vo-	.	1d	.	.	2c\]	.	.	2f\	-am	.
2G\	.	.	.	.	.	2B\	.	.	2f\	si	.
=142	=142	=142	=142	=142	=142	=142	=142	=142	=142	=142	=142
2C/	.	.	1c	.	.	2B\	.	.	2e\	vo-	.
[2F\	.	.	.	.	.	2A\	.	.	2f\	.	.
=143	=143	=143	=143	=143	=143	=143	=143	=143	=143	=143	=143
2F\]	.	.	2B\	.	.	2d\	.	.	1g	-lu-	.
2E\	-lu-	.	2c\	-lu-	.	2e\	-lu-	.	.	.	.
=144	=144	=144	=144	=144	=144	=144	=144	=144	=144	=144	=144
1D	-iſ-	.	2c\	-iſ-	.	2A/	-iſ-	.	1f	-iſ-	.
.	.	.	2B\	.	.	2G/	.	.	.	.	.
=145	=145	=145	=145	=145	=145	=145	=145	=145	=145	=145	=145
2C/	-ses	.	2c\	-ses	.	2G/	-ses	.	2e\	-ses	.
2r	.	.	2r	.	.	2r	.	.	2r	.	.
=146	=146	=146	=146	=146	=146	=146	=146	=146	=146	=146	=146
0r	.	.	1r	.	.	2g\	Sa-	.	0r	.	.
.	.	.	.	.	.	2f\	-cri-	.	.	.	.
=147	=147	=147	=147	=147	=147	=147	=147	=147	=147	=147	=147
.	.	.	2g\	Sa-	.	2e\	-fi-	.	.	.	.
.	.	.	2f\	-cri-	.	2d\	-ci-	.	.	.	.
=148	=148	=148	=148	=148	=148	=148	=148	=148	=148	=148	=148
2c\	Sa-	.	2e\	-fi-	.	2g\	-um	.	1r	.	.
2G\	-cri-	.	2d\	-ci-	.	2f\	de-	.	.	.	.
=149	=149	=149	=149	=149	=149	=149	=149	=149	=149	=149	=149
!	!	!	!	!	!	!	!	!LO:DY:b:t=for	!	!	!
2C/	-fi-	.	2c\	-um	.	1e	-diſ-	f	2g\	Sa-	.
!	!	!LO:DY:b:t=for	!	!	!	!	!	!	!	!	!
2c\	-ci-	f	2e\	de-	.	.	.	.	2g\	-cri-	.
=150	=150	=150	=150	=150	=150	=150	=150	=150	=150	=150	=150
*	*	*	*	*	*	*custos:e	*	*	*	*	*
2c\	-um	.	1d	-diſ-	.	1f	-sem	.	2a\	-fi-	.
[<2B\	de-	.	.	.	.	.	.	.	2g\	-ci-	.
!	!	!	!	!	!	!LO:LB:g=original	!	!	!	!	!
=151	=151	=151	=151	=151	=151	=151	=151	=151	=151	=151	=151
*	*	*	*custos:B	*	*	*	*	*	*	*	*
2B\]	.	.	1c	-se(m)	.	1e	de-	.	2g\	-um	.
[<2A\	-diſ-	.	.	.	.	.	.	.	2f\	de-	.
!	!	!	!LO:LB:g=original	!	!	!	!	!	!	!	!
=152	=152	=152	=152	=152	=152	=152	=152	=152	=152	=152	=152
2A\]	.	.	1B	u-	.	2d\	-diſ-	.	2f\	-diſ-	.
2G\	-se(m)	.	.	.	.	2d\	-se(m)	.	2e\	-se(m)	.
=153	=153	=153	=153	=153	=153	=153	=153	=153	=153	=153	=153
2G\	u-	.	1A	-ti-	.	2c\	u-	.	2e\	u-	.
*custos:G	*	*	*	*	*	*	*	*	*custos:d	*	*
2F#X\	-t[i]-	.	.	.	.	2c\	-ti-	.	2d\	-ti-	.
!LO:LB:g=original	!	!	!	!	!	!	!	!	!LO:LB:g=original	!	!
=154	=154	=154	=154	=154	=154	=154	=154	=154	=154	=154	=154
2G\	-que	.	2B\	-que	.	2B\	-que	.	2d\	-que	.
2r	.	.	2r	.	.	2r	.	.	2e\	ho-	.
=155	=155	=155	=155	=155	=155	=155	=155	=155	=155	=155	=155
2G#X\	ho-	.	2B\	ho-	.	2e\	ho-	.	2e\	.	.
2E\	-lo-	.	2B\	-lo-	.	2e\	-lo-	.	2g#X\	-lo-	.
=156	=156	=156	=156	=156	=156	=156	=156	=156	=156	=156	=156
2A\	-cau-	.	2c\	-cau-	.	2e\	-cau-	.	2a\	-cau-	.
2AA/	-stits	.	2c\	-stis	.	2e\	-stis	.	2a\	-[s]tis	.
=157	=157	=157	=157	=157	=157	=157	=157	=157	=157	=157	=157
2A\	non	.	2c\	non	.	2e\	non	.	2a\	non	.
2r	.	.	2r	.	.	2r	.	.	2r	.	.
=158	=158	=158	=158	=158	=158	=158	=158	=158	=158	=158	=158
!	!	!LO:DY:b:t=pia	!	!	!	!	!	!LO:DY:a:t=pia.	!	!	!LO:DY:a:t=pia.
2F\	non	p	2c\	non	.	2A/	non	p	2f\	non	p
2r	.	.	2r	.	.	2r	.	.	2r	.	.
=159	=159	=159	=159	=159	=159	=159	=159	=159	=159	=159	=159
2F\	de-	.	2c\	de-	.	2A\	de-	.	2f\	de-	.
2D\	-le-	.	2c\	-le-	.	2A\	-le-	.	2f\	-le-	.
=160	=160	=160	=160	=160	=160	=160	=160	=160	=160	=160	=160
1E	-cta-	.	2B\	-cta-	.	2G#X/	-cta-	.	1e	-cta-	.
.	.	.	2c\	.	.	[2A/	.	.	.	.	.
=161	=161	=161	=161	=161	=161	=161	=161	=161	=161	=161	=161
1E	-be-	.	1B	-be-	.	2A/]	.	.	1e	-be-	.
.	.	.	.	.	.	2G#X/	-be-	.	.	.	.
=162	=162	=162	=162	=162	=162	=162	=162	=162	=162	=162	=162
!LO:TX:a:t=Sacrificium \ntacet	!	!	!LO:TX:a:t=Sacrificium \ntacet	!	!	!LO:TX:a:t=Sacrificiu(m) \ntacet	!	!	!LO:TX:a:t=Sacrificiu(m) \ntacet.	!	!
1AA	-ris.	.	1c#X	-ris.	.	1A;	-ris.	.	1e	-ris.	.
!	!	!	!LO:LB:g=original	!	!	!LO:LB:g=original	!	!	!LO:LB:g=original	!	!
=163||	=163||	=163||	=163||	=163||	=163||	=163||	=163||	=163||	=163||	=163||	=163||
*M2/2	*	*	*M2/2	*	*	*M2/2	*	*	*M2/2	*	*
*met(c|)	*	*	*met(c|)	*	*	*met(c|)	*	*	*met(c|)	*	*
!LO:TX:t=P:problem=brak metrum	!	!	!	!	!	!	!	!	!	!	!
2r	.	.	2r	.	.	1c	Be-	.	1e	Be-	.
2A\	Be-	.	2c\	Be-	.	.	.	.	.	.	.
=164	=164	=164	=164	=164	=164	=164	=164	=164	=164	=164	=164
!	!	!	!	!	!	!LO:TX:t=P:problem=poprawiony tekst	!	!	!	!	!
2G#X\	-ni-	.	2B\	-ni-	.	2d\	-ni-	.	2e\	-ni-	.
2E\	-gne	.	2G#X/	-gne	.	2d\	-gne	.	2e\	-gne	.
=165	=165	=165	=165	=165	=165	=165	=165	=165	=165	=165	=165
(2AA/	fac	.	2A\	fac	.	1c	fac	.	1e	fac	.
2A\)	.	.	2c\	.	.	.	.	.	.	.	.
=166	=166	=166	=166	=166	=166	=166	=166	=166	=166	=166	=166
2G#X\	Do-	.	2B\	Do-	.	2d\	Do-	.	2e\	Do-	.
2E\	-mi-	.	2G#X/	-mi-	.	2d\	-mi-	.	2e\	-mi-	.
=167	=167	=167	=167	=167	=167	=167	=167	=167	=167	=167	=167
2AA/	-ne	.	2A/	-ne	.	2c\	-ne	.	2e\	-ne	.
2r	.	.	2r	.	.	2e\	in	.	2g\	in	.
=168	=168	=168	=168	=168	=168	=168	=168	=168	=168	=168	=168
2r	.	.	2r	.	.	1e	bo-	.	1g	bo-	.
2c\	in	.	2e\	in	.	.	.	.	.	.	.
=169	=169	=169	=169	=169	=169	=169	=169	=169	=169	=169	=169
2B\	bo-	.	2d\	bo-	.	1f	-na	.	1g	-na	.
2Gn\	-na	.	2B\	-na	.	.	.	.	.	.	.
=170	=170	=170	=170	=170	=170	=170	=170	=170	=170	=170	=170
2C/	vo-	.	2c\	vo-	.	2e\	vo-	.	2g\	vo-	.
2c\	-lun-	.	2e\	-lun-	.	2e\	-lun-	.	2g\	-lun-	.
=171	=171	=171	=171	=171	=171	=171	=171	=171	=171	=171	=171
2B\	-ta-	.	2d\	-ta-	.	2f\	-ta-	.	2g\	-ta-	.
2G\	-te	.	2d\	-te	.	2f\	-te	.	2g\	-te	.
=172	=172	=172	=172	=172	=172	=172	=172	=172	=172	=172	=172
1c	tu-	.	1e	tu-	.	1e	tu-	.	1g	tu-	.
=173	=173	=173	=173	=173	=173	=173	=173	=173	=173	=173	=173
1B	-a	.	1e	-a	.	1d	-a	.	1g	-a	.
=174	=174	=174	=174	=174	=174	=174	=174	=174	=174	=174	=174
1A	Sy-	.	1e	Sy-	.	[1c	Si-	.	1g	Sy-	.
=175	=175	=175	=175	=175	=175	=175	=175	=175	=175	=175	=175
1D	.	.	1d	.	.	1c]	.	.	1f#X	.	.
=176	=176	=176	=176	=176	=176	=176	=176	=176	=176	=176	=176
*	*	*	*custos:d	*	*	*	*	*	*	*	*
1G;	-on	.	1d;	-on	.	1B;	-on.	.	1g;	-on	.
!	!	!	!LO:LB:g=original	!	!	!	!	!	!	!	!
=177	=177	=177	=177	=177	=177	=177	=177	=177	=177	=177	=177
*custos:G	*	*	*	*	*	*	*	*	*custos:g	*	*
1r	.	.	2d\	ut	.	2B\	ut	.	1r	.	.
.	.	.	2c\	ae-	.	2A\	ae-	.	.	.	.
!LO:LB:g=original	!	!	!	!	!	!	!	!	!LO:LB:g=original	!	!
=178	=178	=178	=178	=178	=178	=178	=178	=178	=178	=178	=178
2G\	ut	.	1d	-di-	.	2B\	-di-	.	2g\	ut	.
2F#X\	ae-	.	.	.	.	2c\	-fi-	.	2a\	ae-	.
=179	=179	=179	=179	=179	=179	=179	=179	=179	=179	=179	=179
2G\	-di-	.	1d	-fi-	.	2B\	-cen-	.	2g\	-di-	.
*	*	*	*	*	*	*custos:B	*	*	*	*	*
2D\	-fi-	.	.	.	.	2A\	.	.	2f#X\	-fi-	.
!	!	!	!	!	!	!LO:LB:g=original	!	!	!	!	!
=180	=180	=180	=180	=180	=180	=180	=180	=180	=180	=180	=180
!	!	!	!	!	!	!	!	!	!LO:SIC:s=2f#:v	!	!
(2G\	-cen-	.	1d	-cen-	.	2B\	.	.	2f\	-cen-	.
2F#X\)	.	.	.	.	.	2c\	.	.	2a\	.	.
=181	=181	=181	=181	=181	=181	=181	=181	=181	=181	=181	=181
1G	-tur	.	1d	-tur	.	1B	-tur	.	1g	-tur	.
=182	=182	=182	=182	=182	=182	=182	=182	=182	=182	=182	=182
1r	.	.	1r	.	.	2c\	ut	.	2e\	ut	.
.	.	.	.	.	.	2c\	ae-	.	2e\	ae-	.
=183	=183	=183	=183	=183	=183	=183	=183	=183	=183	=183	=183
!	!	!	!LO:TX:t=P:problem=poprawiony tekst	!	!	!	!	!	!	!	!
(2A\	ae-	.	2A\	ae-	.	2c\	-di-	.	1e	-di-	.
2G#X\)	.	.	2B\	-[tur]	.	2d\	.	.	.	.	.
=184	=184	=184	=184	=184	=184	=184	=184	=184	=184	=184	=184
2A\	-di-	.	2c\	-di-	.	2c\	-fi-	.	1e	-fi-	.
2E\	-fi-	.	2G#X/	-fi-	.	2B\	.	.	.	.	.
=185	=185	=185	=185	=185	=185	=185	=185	=185	=185	=185	=185
2A\	-cen-	.	2A\	-cen-	.	2c\	-cen-	.	2e\	-cen-	.
2G#X\	-tur	.	2B\	-tur	.	2d\	-tur	.	2e\	-tur	.
=186	=186	=186	=186	=186	=186	=186	=186	=186	=186	=186	=186
1A	mu-	.	1A	mu-	.	1c	mu-	.	1e	mu-	.
=187	=187	=187	=187	=187	=187	=187	=187	=187	=187	=187	=187
1F	-ri	.	1A	-ri	.	1c	-ri	.	1f	-ri	.
=188	=188	=188	=188	=188	=188	=188	=188	=188	=188	=188	=188
!	!	!LO:DY:a:t=Pia	!	!	!LO:DY:a:t=pian.	!	!	!LO:DY:b:t=pia&colon;	!	!	!LO:DY:a:t=pia.
1D#X	Je-	p	1A	Je-	p	1c	Je-	p	1f#X	Je-	p
=189	=189	=189	=189	=189	=189	=189	=189	=189	=189	=189	=189
1E	-ru-	.	2G#X/	-ru-	.	2B\	-ru-	.	1e	-ru-	.
.	.	.	[2A/	-sa-	.	2c\	.	.	.	.	.
=190	=190	=190	=190	=190	=190	=190	=190	=190	=190	=190	=190
1E	-sa-	.	2A/]	.	.	1B	-sa-	.	1e	-sa-	.
.	.	.	2G#X/	.	.	.	.	.	.	.	.
=191	=191	=191	=191	=191	=191	=191	=191	=191	=191	=191	=191
!	!	!	!	!	!	!	!	!	!LO:SIC:s=1e:v	!	!
1AA;	-lem.	.	1A	-lem.	.	1c#X;	-lem.	.	1f;	-lem	.
==	==	==	==	==	==	==	==	==	==	==	==
*-	*-	*-	*-	*-	*-	*-	*-	*-	*-	*-	*-
!!!system-decoration: [(g1)]
!!!RDF**kern: >= above
!!!RDF**kern: <= below
!!!ENC: Anna Matuszewska
!!!END: 2021-01-14
!!!ENC: Katarzyna Serwa
!!!END: 2020-12-31
!!!YEC: Copyright 2022 Narodowy Instytut Fryderyka Chopina (https://polishscores.org)
!!!YEM: License CC-BY-4.0 (https://creativecommons.org/licenses/by/4.0)
